src/topics/icons/lodash.svg

<svg height="233" preserveAspectRatio="xMidYMid" viewBox="0 0 256 233" width="256" xmlns="http://www.w3.org/2000/svg"><g fill="none" fill-rule="evenodd"><path d="m.3877942 0h23.7921092v157.893062h94.0869586v19.466259h-117.87906662v-177.359321z" fill="#000"/><path d="m183.154423 46.5027499c16.221903-2.1629205 33.525229 1.081458 46.502759 11.8960547 14.058952 9.733134 21.629193 27.0364817 22.710651 43.2583684 2.162916 19.466268 0 38.932536-10.814614 55.15443-9.733121 12.977513-24.873566 21.629194-42.176893 22.710652-16.221903 2.162915-34.606723-1.081458-48.665675-11.896055-12.97753-10.814597-19.466277-27.036491-21.629193-43.258377-2.162916-17.303353 0-36.7696209 10.814579-51.9100492 8.651698-15.1404319 25.955024-24.8735659 43.258386-25.9550239zm3.244373 18.3848115c10.814579-1.0814626 22.710652 2.1629158 31.362314 9.7331294 7.57024 8.6516809 11.896072 19.4662682 12.97753 30.2808652 1.081458 11.896054 0 24.873566-5.40729 35.688154-5.407289 10.814589-15.140446 18.38481-27.036481 20.547726-10.814615 2.162916-22.710652-1.081458-30.280892-7.570205-8.651664-6.488765-14.058952-16.221895-16.221904-25.955033-2.162916-14.058971-1.081422-28.1179401 4.325867-41.0954526 5.407289-11.8960546 17.303361-20.5477261 30.280855-21.629184z" fill="#000"/><path d="m.3877942 205.47728h255.2244128v27.036481h-255.2244128z" fill="#3492ff"/></g></svg>

<?xml version="1.0" encoding="UTF-8" standalone="no" ?>
<svg width="256px" height="233px" viewBox="0 0 256 233" version="1.1" xmlns="http://www.w3.org/2000/svg" xmlns:xlink="http://www.w3.org/1999/xlink" preserveAspectRatio="xMidYMid">
    <g stroke="none" stroke-width="1" fill="none" fill-rule="evenodd">
        <path d="M0.387794202,0 L24.1799034,0 L24.1799034,157.893062 L118.266862,157.893062 L118.266862,177.359321 L0.387795376,177.359321 L0.387795376,3.33759524e-14 L0.387794202,0 Z" fill="#000000"></path>
        <path d="M183.154423,46.5027499 C199.376326,44.3398294 216.679652,47.5842079 229.657182,58.3988046 C243.716134,68.1319386 251.286375,85.4352863 252.367833,101.657173 C254.530749,121.123441 252.367833,140.589709 241.553219,156.811603 C231.820098,169.789116 216.679653,178.440797 199.376326,179.522255 C183.154423,181.68517 164.769603,178.440797 150.710651,167.6262 C137.733121,156.811603 131.244374,140.589709 129.081458,124.367823 C126.918542,107.06447 129.081458,87.5982021 139.896037,72.4577738 C148.547735,57.3173419 165.851061,47.5842079 183.154423,46.5027499 L183.154423,46.5027499 Z M186.398796,64.8875614 C197.213375,63.8060988 209.109448,67.0504772 217.76111,74.6206908 C225.33135,83.2723717 229.657182,94.086959 230.73864,104.901556 C231.820098,116.79761 230.73864,129.775122 225.33135,140.58971 C219.924061,151.404299 210.190904,158.97452 198.294869,161.137436 C187.480254,163.300352 175.584217,160.055978 168.013977,153.567231 C159.362313,147.078466 153.955025,137.345336 151.792073,127.612198 C149.629157,113.553227 150.710651,99.4942579 156.11794,86.5167454 C161.525229,74.6206908 173.421301,65.9690193 186.398795,64.8875614 L186.398796,64.8875614 Z" fill="#000000"></path>
        <path d="M0.387794202,205.47728 L255.612207,205.47728 L255.612207,232.513761 L0.387794202,232.513761 L0.387794202,205.47728 L0.387794202,205.47728 Z" fill="#3492FF"></path>
    </g>
</svg>
